X: 1300
T: Booligal Polka
B: australian traditional tunes wiki
M:2/4
L:1/16
R: Set Tune
Q: 1/4=100
K:G
V:1 
D2 DDD2|:"G"G3G G2B2|d6Bd|"C"e2d2 e2g2|"G"d2(3ddd d2(3dcB|
"C"c2B2 c2dc|"G"B2G2 B2dc|"D"A2G2 A2B2|1d2c2 A2F2:|2"G"G8||
|:"G"b4g4|d4B4|"D"DEFG ABcd|e2d2 ^c2d2|
"Am"c'4a4|"D7"(3f2a2f2 d4|"C"c2d2 "D7"e2f2|"G"g4 [g2B2D2G,2]:|
% abcbook-tune_id 6342d53a4339d39850dbcc45


% abcbook-boost 0
% abcbook-tablature 
% abcbook-transpose 
% abcbook-lastupdated 1665324358038
% abcbook-soundfonts 
% abcbook-repeats 1
% NFF Book 2010

